X: 61
T: No_153_Switchgrass_Dance_Song_(c).krn
N: Derived from No_153_Switchgrass_Dance_Song_(c).krn
%%abc-version 2.0
%%abcx-abcm2ps-target-version 5.9.1 (29 Sep 2008)
%%abc-creator hum2abc beta
%%abcx-conversion-date 2019/03/15 08:38:45
%%humdrum-veritas 2935601359
%%humdrum-veritas-data 3427842967
%%linebreak <none>
%%barnumbers 0
L: 1/16
M: 3/4
K: F clef=bass
[K:clef=bass][M:3/4]z8z3 A, | 
A,G, z D DB, z D DC2 z ]|:  
[M:2/4]G,2A,2 C3A, | 
G,G,A,2 CA,G,2 ||  
[M:3/4]D,2G,F, G,F,D,2 D,2 z2 ||  
[M:2/4]D,3F, D,2D, z | 
CCA,D D2C z :|]  



